dist/images/services-icons/4.svg

<svg width="76" height="75" viewBox="0 0 76 75" fill="none" xmlns="http://www.w3.org/2000/svg">
<path d="M36.8574 75C16.5014 75 0 58.4973 0 38.1413C0 28.133 3.9891 19.0558 10.4628 12.4145C10.5472 12.3277 10.6318 12.2421 10.7172 12.1559L10.7191 12.1583C4.24569 18.7995 0.256294 27.8762 0.256294 37.8844C0.256294 58.241 16.7578 74.7436 37.1136 74.7436C47.1217 74.7436 56.1988 70.754 62.8399 64.28L62.8417 64.2816C62.7561 64.3672 62.6699 64.4516 62.5837 64.536C55.942 71.011 46.8654 75 36.8574 75Z" fill="#969A9D"/>
<path d="M37.1151 74.7435C16.7593 74.7435 0.257812 58.2409 0.257812 37.8843C0.257812 27.8761 4.24721 18.7994 10.7206 12.1582C10.8053 12.0714 10.8899 11.9852 10.975 11.8995L10.9772 11.9013C4.50375 18.5432 0.514347 27.6199 0.514347 37.6281C0.514347 57.9846 17.0158 74.4875 37.372 74.4875C47.38 74.4875 56.4566 70.4978 63.0977 64.0229L63.1001 64.0254C63.0139 64.1103 62.9282 64.1955 62.8414 64.2799C56.2003 70.7539 47.1232 74.7435 37.1151 74.7435Z" fill="#96999C"/>
<path d="M37.3771 74.4874C17.021 74.4874 0.519531 57.9845 0.519531 37.628C0.519531 27.6198 4.50893 18.5431 10.9824 11.9013C11.067 11.8151 11.1517 11.7289 11.2368 11.6433L11.2389 11.6451C4.76546 18.2863 0.775821 27.3636 0.775821 37.3718C0.775821 57.7277 17.2775 74.2304 37.6334 74.2304C47.6414 74.2304 56.718 70.2414 63.3597 63.7668L63.3615 63.7684C63.2759 63.8542 63.1897 63.9384 63.1029 64.0228C56.4617 70.4977 47.3852 74.4874 37.3771 74.4874Z" fill="#96989A"/>
<path d="M37.6232 74.2305C17.2673 74.2305 0.765625 57.7278 0.765625 37.3719C0.765625 27.3636 4.75526 18.2863 11.2287 11.6451C11.3131 11.5583 11.3978 11.4727 11.4831 11.3865L11.485 11.3889C5.01156 18.0301 1.02216 27.1068 1.02216 37.115C1.02216 57.4714 17.5236 73.9744 37.8794 73.9744C47.8875 73.9744 56.9646 69.9847 63.6057 63.5105L63.6075 63.5124C63.5219 63.5973 63.4357 63.6824 63.3495 63.7668C56.7078 70.2415 47.6312 74.2305 37.6232 74.2305Z" fill="#95979A"/>
<path d="M37.8807 73.9746C17.5249 73.9746 1.02344 57.4716 1.02344 37.1152C1.02344 27.107 5.01283 18.0303 11.4863 11.3891C11.5707 11.3023 11.6556 11.2161 11.7409 11.1304L11.7428 11.1322C10.1952 12.7206 8.7885 14.4484 7.54529 16.2941C7.5441 16.2959 7.54272 16.2983 7.54128 16.3001C7.5329 16.3127 7.52446 16.3252 7.51608 16.3378C7.51351 16.342 7.51135 16.3444 7.50883 16.3486C7.50135 16.36 7.49405 16.3707 7.48638 16.3821C7.48381 16.3857 7.47956 16.3923 7.47698 16.3959C7.46998 16.4067 7.46345 16.4162 7.45645 16.427C7.45244 16.433 7.44915 16.4378 7.44544 16.4438C7.43957 16.4522 7.43304 16.4618 7.42741 16.4707C7.42227 16.4785 7.41783 16.4851 7.41269 16.4923C7.40802 16.4995 7.40287 16.5073 7.3982 16.5144C7.39233 16.5234 7.38718 16.5312 7.38138 16.5396C7.37689 16.5468 7.37293 16.5527 7.3685 16.5593C7.36216 16.5689 7.35563 16.5785 7.34929 16.5881C7.34629 16.5929 7.34276 16.5983 7.33971 16.603C7.33198 16.6144 7.32522 16.6246 7.31774 16.6366C7.31516 16.6402 7.31331 16.6432 7.31073 16.6467C7.30253 16.6593 7.29367 16.6731 7.28547 16.6857C7.28409 16.6875 7.28361 16.688 7.28242 16.6904C7.27284 16.7048 7.26374 16.7186 7.25416 16.7335C7.25392 16.7341 7.25368 16.7341 7.2532 16.7347C3.47502 22.521 1.27979 29.4329 1.27979 36.859C1.27979 48.8279 6.98404 59.4635 15.8225 66.1971C22.0164 70.9159 29.7501 73.7176 38.1375 73.7176C42.1924 73.7176 46.0951 73.0627 49.7441 71.8535L49.7447 71.8527C49.7614 71.8474 49.7788 71.8415 49.7955 71.8359C49.7967 71.8359 49.7979 71.8354 49.7991 71.8348C49.8147 71.8294 49.8291 71.8247 49.8446 71.8198C49.8482 71.8186 49.8506 71.8175 49.8542 71.8163C49.868 71.8121 49.8817 71.8074 49.8955 71.8025C49.9003 71.8013 49.9039 71.8001 49.9081 71.7983C49.9201 71.7941 49.9314 71.7905 49.944 71.7863C49.9506 71.784 49.9566 71.7822 49.9632 71.7798C49.9733 71.7761 49.9835 71.7726 49.9937 71.7695C50.0015 71.7667 50.0093 71.7641 50.017 71.7611C50.0254 71.7588 50.0344 71.7557 50.0428 71.7529C50.0524 71.7492 50.0619 71.7461 50.0721 71.7426C50.0787 71.7403 50.0847 71.7384 50.0913 71.7361C50.1027 71.7326 50.1146 71.7283 50.1254 71.7241C50.1308 71.7227 50.1362 71.7204 50.141 71.7192C50.1547 71.7146 50.1673 71.7097 50.1811 71.7054C50.1829 71.7043 50.1853 71.7038 50.1871 71.7031C50.2026 71.6977 50.2188 71.6924 50.2344 71.687C50.2356 71.6863 50.2368 71.6858 50.238 71.6858C51.1156 71.3804 51.9801 71.0427 52.826 70.6746C52.823 70.6764 52.8194 70.6776 52.8165 70.6793C56.9473 68.8839 60.6849 66.354 63.8644 63.2543L63.8656 63.2563C63.78 63.3411 63.6938 63.4258 63.607 63.5107C56.9659 69.9849 47.8888 73.9746 37.8807 73.9746Z" fill="#939699"/>
<path d="M38.1421 73.7173C42.1976 73.7173 46.0991 73.0624 49.7487 71.8532C46.0997 73.0624 42.197 73.7173 38.1421 73.7173ZM49.8588 71.816C49.872 71.8118 49.887 71.8071 49.9001 71.8022C49.8864 71.8071 49.8726 71.8118 49.8588 71.816ZM49.9127 71.798C49.9241 71.7945 49.9373 71.7896 49.9486 71.786C49.9361 71.7902 49.9247 71.7938 49.9127 71.798ZM50.0217 71.7608C50.0306 71.758 50.0384 71.7554 50.0474 71.7526C50.039 71.7554 50.03 71.7584 50.0217 71.7608ZM50.13 71.7238C50.1348 71.7224 50.1414 71.7201 50.1456 71.7189C50.1408 71.7201 50.1354 71.7224 50.13 71.7238ZM50.239 71.6867C50.2414 71.6855 50.2402 71.6859 50.2426 71.6855C50.2414 71.6855 50.2402 71.6859 50.239 71.6867ZM7.25781 16.7345C7.25829 16.7339 7.25853 16.7339 7.25877 16.7333L7.25781 16.7345ZM7.31535 16.6464C7.31792 16.6429 7.31977 16.6399 7.32235 16.6363C7.32049 16.6393 7.3172 16.6441 7.31535 16.6464ZM7.37312 16.559C7.37755 16.5525 7.3815 16.5465 7.38599 16.5393C7.3815 16.5465 7.37779 16.5525 7.37312 16.559ZM7.40281 16.5141C7.40748 16.507 7.41263 16.4992 7.4173 16.492C7.41287 16.4992 7.40724 16.5076 7.40281 16.5141ZM7.49099 16.3818C7.49866 16.3704 7.50596 16.3597 7.51344 16.3483C7.50572 16.3597 7.49866 16.3704 7.49099 16.3818ZM7.5499 16.2938C8.79312 14.4481 10.1998 12.7203 11.7474 11.132C11.8318 11.0457 11.9165 10.9595 12.0018 10.8739C10.3531 12.5323 8.86089 14.3475 7.5499 16.2938Z" fill="#939599"/>
<mask id="mask0_801_5070" style="mask-type:luminance" maskUnits="userSpaceOnUse" x="1" y="0" width="74" height="74">
<path d="M38.027 73.7178C29.6641 73.7178 21.9531 70.934 15.7774 66.2454C6.96486 59.5549 1.27734 48.9874 1.27734 37.0951C1.27734 29.7165 3.46613 22.8489 7.23324 17.0996L7.23419 17.0984C7.24374 17.0836 7.25281 17.0699 7.26236 17.0556C7.26356 17.0532 7.26403 17.0526 7.26541 17.0509C7.27358 17.0384 7.28242 17.0247 7.2906 17.0122C7.29245 17.0098 7.29573 17.0051 7.29758 17.0021C7.30504 16.9902 7.31179 16.9801 7.31949 16.9688C7.32253 16.964 7.32606 16.9587 7.32904 16.9539C7.33537 16.9444 7.34187 16.9349 7.3482 16.9253C7.35286 16.9188 7.35656 16.9128 7.36104 16.9057C7.36683 16.8974 7.37196 16.8897 7.37781 16.8807C7.38223 16.8742 7.38784 16.8659 7.39225 16.8587C7.39739 16.8516 7.4018 16.845 7.40694 16.8373C7.41255 16.8284 7.41906 16.8189 7.42491 16.8105C7.42861 16.8046 7.43189 16.7998 7.43589 16.7939C7.44287 16.7832 7.44938 16.7737 7.45636 16.763C7.45893 16.7594 7.46317 16.7528 7.46573 16.7493C7.47337 16.738 7.48042 16.7273 7.48812 16.716C7.49063 16.7118 7.49278 16.7094 7.49534 16.7052C7.5037 16.6928 7.51211 16.6803 7.52047 16.6678C7.5219 16.666 7.52328 16.6636 7.52447 16.6618C8.83161 14.728 10.3195 12.9244 11.9636 11.2766C12.959 10.2784 14.0108 9.33856 15.1156 8.45937C17.6971 7.24229 20.1125 5.73435 22.3214 3.97775C26.7989 2.0415 31.7402 0.967773 36.9328 0.967773C57.2293 0.967773 73.6822 17.3649 73.6822 37.5912C73.6822 52.205 65.0943 64.8182 52.6724 70.6942C51.829 71.06 50.967 71.3955 50.0919 71.699C50.0895 71.6994 50.0907 71.699 50.0883 71.7001C50.0728 71.7055 50.0567 71.7109 50.0412 71.7161C50.0394 71.7169 50.037 71.7173 50.0352 71.7185C50.0215 71.7227 50.009 71.7276 49.9952 71.7322C49.991 71.7333 49.9845 71.7357 49.9797 71.7371C49.969 71.7413 49.957 71.7455 49.9457 71.7489C49.9391 71.7512 49.9331 71.7531 49.9266 71.7555C49.9164 71.7589 49.9069 71.762 49.8973 71.7656C49.8884 71.7684 49.8806 71.771 49.8717 71.7738C49.8639 71.7768 49.8561 71.7794 49.8484 71.7822C49.8382 71.7852 49.8281 71.7887 49.8179 71.7924C49.8114 71.7947 49.8054 71.7966 49.7988 71.7989C49.7875 71.8024 49.7744 71.8073 49.763 71.8107C49.7588 71.8126 49.7553 71.8138 49.7505 71.815C49.7373 71.8198 49.7224 71.8245 49.7093 71.8286C49.7057 71.8298 49.7033 71.831 49.6997 71.8321C49.6842 71.837 49.6699 71.8417 49.6544 71.847C49.6532 71.8477 49.652 71.8481 49.6508 71.8481C49.6341 71.8537 49.6168 71.8596 49.6001 71.8649L49.5995 71.8656C45.9606 73.0671 42.0705 73.7178 38.027 73.7178ZM74.1818 43.6932C74.1824 43.6926 74.1824 43.6902 74.183 43.689C74.1824 43.6902 74.1824 43.692 74.1818 43.6932ZM74.2015 43.5843C74.2027 43.5796 74.2033 43.5742 74.2045 43.5695C74.2033 43.5748 74.2027 43.5784 74.2015 43.5843ZM74.2111 43.5326C74.2123 43.5272 74.2129 43.5219 74.2141 43.5165C74.2129 43.5213 74.2117 43.5278 74.2111 43.5326ZM74.2308 43.4196C74.2326 43.4118 74.2338 43.4041 74.235 43.3964C74.2338 43.4047 74.2326 43.4112 74.2308 43.4196ZM74.2397 43.3696C74.2409 43.3607 74.2427 43.3535 74.2439 43.3452C74.2427 43.353 74.2409 43.3613 74.2397 43.3696ZM74.2493 43.3131C74.2517 43.3 74.2541 43.2851 74.2564 43.272C74.2541 43.2857 74.2517 43.2994 74.2493 43.3131ZM74.2672 43.2096C74.6021 41.2216 74.777 39.1789 74.777 37.0957C74.777 27.2074 70.8433 18.2328 64.4514 11.6436C70.8433 18.2328 74.777 27.2068 74.777 37.0951C74.777 39.1789 74.6027 41.221 74.2672 43.2096ZM22.3232 3.97596C22.325 3.97477 22.325 3.97477 22.3268 3.97358C24.5043 2.94686 26.8001 2.12656 29.1878 1.53884C26.7989 2.12715 24.5026 2.94746 22.3232 3.97596ZM29.2188 1.5311C29.2242 1.52991 29.2308 1.52814 29.2367 1.52695C29.2308 1.52814 29.2248 1.52991 29.2188 1.5311Z" fill="white"/>
</mask>
<g mask="url(#mask0_801_5070)">
<path d="M38.027 73.7178C29.6641 73.7178 21.9531 70.934 15.7774 66.2454C6.96486 59.5549 1.27734 48.9874 1.27734 37.0951C1.27734 29.7165 3.46613 22.8489 7.23324 17.0996L7.23419 17.0984C7.24374 17.0836 7.25281 17.0699 7.26236 17.0556C7.26356 17.0532 7.26403 17.0526 7.26541 17.0509C7.27358 17.0384 7.28242 17.0247 7.2906 17.0122C7.29245 17.0098 7.29573 17.0051 7.29758 17.0021C7.30504 16.9902 7.31179 16.9801 7.31949 16.9688C7.32253 16.964 7.32606 16.9587 7.32904 16.9539C7.33537 16.9444 7.34187 16.9349 7.3482 16.9253C7.35286 16.9188 7.35656 16.9128 7.36104 16.9057C7.36683 16.8974 7.37196 16.8897 7.37781 16.8807C7.38223 16.8742 7.38783 16.8659 7.39225 16.8587C7.39739 16.8516 7.4018 16.845 7.40694 16.8373C7.41255 16.8284 7.41906 16.8189 7.42491 16.8105C7.42861 16.8046 7.43189 16.7998 7.43589 16.7939C7.44287 16.7832 7.44938 16.7737 7.45636 16.7629C7.45893 16.7594 7.46317 16.7528 7.46573 16.7493C7.47337 16.738 7.48042 16.7273 7.48812 16.716C7.49063 16.7118 7.49278 16.7094 7.49534 16.7052C7.5037 16.6928 7.51211 16.6803 7.52047 16.6678C7.5219 16.666 7.52328 16.6636 7.52447 16.6618C8.83161 14.7279 10.3195 12.9244 11.9636 11.2766C12.959 10.2784 14.0108 9.33856 15.1156 8.45937C17.6971 7.24229 20.1125 5.73435 22.3214 3.97775C26.7989 2.0415 31.7402 0.967773 36.9328 0.967773C57.2293 0.967773 73.6822 17.3649 73.6822 37.5912C73.6822 52.205 65.0943 64.8182 52.6724 70.6942C51.829 71.06 50.967 71.3955 50.0919 71.699C50.0895 71.6994 50.0907 71.699 50.0883 71.7001C50.0728 71.7055 50.0567 71.7109 50.0412 71.7161C50.0394 71.7169 50.037 71.7173 50.0352 71.7185C50.0215 71.7227 50.0089 71.7276 49.9952 71.7322C49.991 71.7333 49.9845 71.7357 49.9797 71.7371C49.969 71.7413 49.957 71.7455 49.9457 71.7489C49.9391 71.7512 49.9331 71.7531 49.9266 71.7555C49.9164 71.7589 49.9069 71.762 49.8973 71.7656C49.8884 71.7684 49.8806 71.771 49.8717 71.7738C49.8639 71.7768 49.8561 71.7794 49.8484 71.7822C49.8382 71.7852 49.8281 71.7887 49.8179 71.7924C49.8114 71.7947 49.8054 71.7966 49.7988 71.7989C49.7875 71.8024 49.7744 71.8073 49.763 71.8107C49.7588 71.8126 49.7553 71.8138 49.7505 71.815C49.7373 71.8198 49.7224 71.8245 49.7093 71.8286C49.7057 71.8298 49.7033 71.831 49.6997 71.8321C49.6842 71.837 49.6699 71.8417 49.6544 71.847C49.6532 71.8477 49.652 71.8481 49.6508 71.8481C49.6341 71.8537 49.6168 71.8596 49.6001 71.8649L49.5995 71.8656C45.9606 73.0671 42.0705 73.7178 38.027 73.7178ZM74.1818 43.6932C74.1824 43.6926 74.1824 43.6902 74.183 43.689C74.1824 43.6902 74.1824 43.692 74.1818 43.6932ZM74.2015 43.5843C74.2027 43.5796 74.2033 43.5742 74.2045 43.5695C74.2033 43.5748 74.2027 43.5784 74.2015 43.5843ZM74.2111 43.5326C74.2123 43.5272 74.2129 43.5219 74.2141 43.5165C74.2129 43.5213 74.2117 43.5278 74.2111 43.5326ZM74.2308 43.4196C74.2326 43.4118 74.2338 43.4041 74.235 43.3964C74.2338 43.4047 74.2326 43.4112 74.2308 43.4196ZM74.2397 43.3696C74.2409 43.3607 74.2427 43.3535 74.2439 43.3452C74.2427 43.3529 74.2409 43.3613 74.2397 43.3696ZM74.2493 43.3131C74.2517 43.3 74.2541 43.2851 74.2564 43.272C74.2541 43.2857 74.2517 43.2994 74.2493 43.3131ZM74.2672 43.2096C74.6021 41.2216 74.777 39.1789 74.777 37.0957C74.777 27.2074 70.8432 18.2328 64.4514 11.6436C70.8432 18.2328 74.777 27.2068 74.777 37.0951C74.777 39.1789 74.6027 41.221 74.2672 43.2096ZM22.3232 3.97595C22.325 3.97476 22.325 3.97476 22.3268 3.97357C24.5043 2.94685 26.8001 2.12655 29.1878 1.53883C26.7989 2.12714 24.5026 2.94745 22.3232 3.97595ZM29.2188 1.5311C29.2242 1.52991 29.2308 1.52813 29.2367 1.52694C29.2308 1.52813 29.2248 1.52991 29.2188 1.5311Z" fill="url(#paint0_linear_801_5070)"/>
</g>
<path d="M35.2443 27.6724H22V36.2413H32.5667L35.2443 27.6724Z" fill="#202020"/>
<path d="M36.751 53.3793H29.9508C28.2634 53.3793 26.8906 54.7521 26.8906 56.4396C26.8906 58.1271 28.2634 59.5 29.9508 59.5H36.751C35.9548 58.7214 35.459 57.638 35.459 56.4396C35.459 55.2412 35.9548 54.1578 36.751 53.3793Z" fill="#202020"/>
<path d="M50.1562 30.1206H55.6645C56.0023 30.1206 56.2765 29.8464 56.2765 29.5086C56.2765 29.1707 56.0023 28.8965 55.6645 28.8965H50.1562V30.1206Z" fill="#202020"/>
<path d="M35.4688 37.4656V52.1552H39.7529C41.4403 52.1552 42.8131 53.5281 42.8131 55.2156C42.8131 56.903 41.4403 58.2759 39.7529 58.2759C38.7407 58.2759 37.9169 57.4521 37.9169 56.4397C37.9169 55.4273 38.7407 54.6035 39.7529 54.6035H40.365V55.8276H39.7529C39.4151 55.8276 39.1409 56.1018 39.1409 56.4397C39.1409 56.7776 39.4151 57.0518 39.7529 57.0518C40.7652 57.0518 41.589 56.2279 41.589 55.2156C41.589 54.2032 40.7652 53.3794 39.7529 53.3794C38.0656 53.3794 36.6928 54.7522 36.6928 56.4397C36.6928 58.1272 38.0656 59.5 39.7529 59.5C42.1148 59.5 44.0371 57.5775 44.0371 55.2156V38.6254C42.8871 38.4822 41.783 38.0911 40.7958 37.4656H35.4688Z" fill="#202020"/>
<path d="M40.2785 36.2413L39.2074 27.6724H36.5255L33.8479 36.2413H40.2785Z" fill="#202020"/>
<path d="M56.8886 31.3447H50.1562V32.5689H56.8886C57.2264 32.5689 57.5006 32.2947 57.5006 31.9568C57.5006 31.6189 57.2264 31.3447 56.8886 31.3447Z" fill="#202020"/>
<path d="M41.057 26.843L40.3984 27.337L41.5423 36.4862C42.5895 37.1246 43.783 37.4655 45.0144 37.4655H46.2433L42.4377 26.0498C41.9493 26.2597 41.4836 26.5229 41.057 26.843Z" fill="#202020"/>
<path d="M54.4404 36.2415H50.1562V37.4656H54.4404C54.7783 37.4656 55.0525 37.1914 55.0525 36.8535C55.0525 36.5157 54.7783 36.2415 54.4404 36.2415Z" fill="#202020"/>
<path d="M55.6645 33.7931H50.1562V35.0172H55.6645C56.0023 35.0172 56.2765 34.743 56.2765 34.4052C56.2765 34.0673 56.0023 33.7931 55.6645 33.7931Z" fill="#202020"/>
<path d="M49.772 24C49.6833 24 49.6319 24.0104 49.5811 24.03L48.9764 24.2724C47.4261 24.893 45.8006 25.3276 44.1438 25.5644C43.9602 25.5902 43.7815 25.6361 43.6016 25.6771L45.4897 31.3412L46.8851 28.5501C46.636 28.3175 46.4781 27.9889 46.4781 27.6216C46.4781 26.9961 46.9255 26.4672 47.543 26.3644L48.6196 26.1845C49.5064 26.037 50.1503 25.2774 50.1503 24.3783C50.1503 24.1695 49.9807 24 49.772 24Z" fill="#202020"/>
<path d="M46.0391 32.9833L47.533 37.4654H48.9284V28.8965H48.0832L46.0391 32.9833Z" fill="#202020"/>
<path d="M75.004 36.8594C75.004 51.999 65.8772 65.0068 52.8249 70.6791C65.2881 64.767 73.9061 52.0696 73.9061 37.3581C73.9061 17.0016 57.4047 0.498787 37.0486 0.498787C31.8335 0.498787 26.8717 1.58241 22.375 3.53652C27.1566 1.2681 32.5028 7.62939e-05 38.1465 7.62939e-05C58.5021 7.62939e-05 75.004 16.5029 75.004 36.8594Z" fill="white"/>
<defs>
<linearGradient id="paint0_linear_801_5070" x1="-4.49069" y1="90.8889" x2="63.7394" y2="10.9654" gradientUnits="userSpaceOnUse">
<stop stop-color="white"/>
<stop offset="1" stop-color="#EFEFEF"/>
</linearGradient>
</defs>
</svg>

<svg width="76" height="75" fill="none" xmlns="http://www.w3.org/2000/svg"><path d="M36.857 75C16.501 75 0 58.497 0 38.141c0-10.008 3.99-19.085 10.463-25.726l.254-.26.002.003C4.246 18.8.256 27.876.256 37.884c0 20.357 16.502 36.86 36.858 36.86 10.008 0 19.085-3.99 25.726-10.464l.002.002-.258.254C55.942 71.011 46.865 75 36.857 75z" fill="#969A9D"/><path d="M37.115 74.743C16.76 74.743.258 58.242.258 37.884c0-10.008 3.99-19.085 10.463-25.726.084-.087.169-.173.254-.258l.002.001C4.504 18.543.514 27.62.514 37.628c0 20.357 16.502 36.86 36.858 36.86 10.008 0 19.085-3.99 25.726-10.465l.002.002-.259.255c-6.64 6.474-15.718 10.463-25.726 10.463z" fill="#96999C"/><path d="M37.377 74.487C17.021 74.487.52 57.985.52 37.628c0-10.008 3.989-19.085 10.462-25.727l.255-.258.002.002C4.765 18.286.776 27.364.776 37.372c0 20.356 16.502 36.858 36.857 36.858 10.008 0 19.085-3.989 25.727-10.463l.002.001c-.086.086-.172.17-.26.255-6.64 6.475-15.717 10.464-25.725 10.464z" fill="#96989A"/><path d="M37.623 74.23C17.267 74.23.766 57.729.766 37.373c0-10.008 3.99-19.086 10.463-25.727.084-.087.169-.172.254-.258l.002.002C5.012 18.03 1.022 27.107 1.022 37.115c0 20.356 16.502 36.86 36.857 36.86 10.009 0 19.086-3.99 25.727-10.464l.002.001-.258.255C56.707 70.24 47.63 74.23 37.623 74.23z" fill="#95979A"/><path d="M37.88 73.975c-20.355 0-36.857-16.503-36.857-36.86 0-10.008 3.99-19.085 10.463-25.726l.255-.259.002.002a37.1 37.1 0 00-4.198 5.162c0 .002-.002.004-.004.006l-.025.038-.007.01-.023.034-.009.014-.02.031-.012.017a.732.732 0 00-.032.048l-.015.022a1.113 1.113 0 01-.03.045l-.019.03-.01.014a1 1 0 00-.021.034l-.007.01-.026.039c0 .002-.001.002-.003.004a3.23 3.23 0 00-.028.043v.002A36.682 36.682 0 001.28 36.859c0 11.969 5.704 22.605 14.543 29.338a36.696 36.696 0 0022.315 7.52c4.054 0 7.957-.654 11.606-1.864l.051-.017.004-.001.046-.015.01-.004a.952.952 0 00.053-.018l.036-.012.02-.006a.575.575 0 01.03-.01l.023-.009.026-.008.03-.01.018-.007a.507.507 0 00.034-.012l.016-.005.04-.014.006-.002.047-.016a36.81 36.81 0 002.592-1.012l-.01.004a36.915 36.915 0 0011.048-7.425l.002.002-.259.255c-6.641 6.474-15.718 10.464-25.726 10.464z" fill="#939699"/><path d="M38.142 73.717zm11.717-1.901l.041-.014a.909.909 0 01-.041.014zm.054-.018l.036-.012-.036.012zm.109-.037l.025-.008-.025.008zm.108-.037l.016-.005-.016.005zm.109-.037l.004-.001h-.004zM7.258 16.734zm.057-.088l.007-.01a.129.129 0 01-.007.01zm.058-.087a.555.555 0 00.013-.02l-.013.02zm.03-.045l.014-.022a.606.606 0 01-.014.022zm.088-.132l.022-.034-.022.034zm.059-.088z" fill="#939599"/><mask id="mask0_801_5070" style="mask-type:luminance" maskUnits="userSpaceOnUse" x="1" y="0" width="74" height="74"><path d="M38.027 73.718a36.67 36.67 0 01-22.25-7.473c-8.812-6.69-14.5-17.258-14.5-29.15A36.356 36.356 0 017.233 17.1l.001-.002a3.183 3.183 0 01.031-.047l.026-.039a.999.999 0 01.029-.043l.009-.015.02-.029.012-.02a.888.888 0 00.046-.068.726.726 0 01.018-.026l.01-.017c.008-.01.014-.02.021-.031l.01-.014.022-.033.007-.01.025-.038.004-.006a36.82 36.82 0 017.592-8.203 36.772 36.772 0 007.205-4.481A36.726 36.726 0 0136.933.968c20.296 0 36.75 16.397 36.75 36.623 0 14.614-8.589 27.227-21.01 33.103-.844.366-1.706.701-2.581 1.005l-.004.001-.047.016-.006.003-.04.013-.015.005a.453.453 0 01-.034.012l-.02.007-.029.01-.025.008-.024.008a.52.52 0 00-.03.01l-.02.007-.035.012a.99.99 0 01-.054.018l-.01.003a1.995 1.995 0 00-.048.016l-.05.017h-.002a36.845 36.845 0 01-11.572 1.853zm36.155-30.025l.001-.004-.001.004zm.02-.109l.002-.015-.002.015zm.01-.051c0-.006 0-.011.002-.017a.152.152 0 00-.003.017zm.019-.113zm.009-.05c0-.01.003-.017.004-.025l-.004.025zm.01-.057l.006-.041-.007.041zm.017-.103c.335-1.988.51-4.031.51-6.114 0-9.889-3.934-18.863-10.326-25.452 6.392 6.589 10.326 15.563 10.326 25.451 0 2.084-.174 4.126-.51 6.115zM22.323 3.976l.004-.002a36.59 36.59 0 01-.004.002zm6.896-2.445l.018-.004-.018.004z" fill="#fff"/></mask><g mask="url(#mask0_801_5070)"><path d="M38.027 73.718a36.67 36.67 0 01-22.25-7.473c-8.812-6.69-14.5-17.258-14.5-29.15A36.356 36.356 0 017.233 17.1l.001-.002a3.183 3.183 0 01.031-.047l.026-.039a.999.999 0 01.029-.043l.009-.015.02-.029.012-.02a.888.888 0 00.046-.068.726.726 0 01.018-.026l.01-.017c.008-.01.014-.02.021-.031l.01-.014.022-.033.007-.01.025-.038.004-.006a36.816 36.816 0 017.592-8.203 36.772 36.772 0 007.205-4.481A36.726 36.726 0 0136.933.968c20.296 0 36.75 16.397 36.75 36.623 0 14.614-8.589 27.227-21.01 33.103-.844.366-1.706.701-2.581 1.005l-.004.001-.047.016-.006.003-.04.013-.015.005a.453.453 0 01-.034.012l-.02.007-.029.01-.025.008-.024.008a.52.52 0 00-.03.01l-.02.007-.035.012a.99.99 0 01-.054.018l-.01.003a1.995 1.995 0 00-.048.016l-.05.017h-.002a36.845 36.845 0 01-11.572 1.853zm36.155-30.025l.001-.004-.001.004zm.02-.109l.002-.015-.002.015zm.01-.051c0-.006 0-.011.002-.017a.152.152 0 00-.003.017zm.019-.113zm.009-.05c0-.01.003-.017.004-.025l-.004.025zm.01-.057l.006-.041-.007.041zm.017-.103c.335-1.988.51-4.031.51-6.114 0-9.889-3.934-18.863-10.326-25.452 6.392 6.589 10.326 15.563 10.326 25.451 0 2.084-.174 4.126-.51 6.115zM22.323 3.976l.004-.002a36.59 36.59 0 01-.004.002zM29.22 1.53l.018-.004-.018.004z" fill="url(#paint0_linear_801_5070)"/></g><path d="M35.244 27.672H22v8.57h10.567l2.677-8.57zm1.507 25.708h-6.8a3.064 3.064 0 00-3.06 3.06 3.064 3.064 0 003.06 3.06h6.8a4.269 4.269 0 010-6.12zm13.405-23.26h5.508a.612.612 0 000-1.224h-5.508v1.225z" fill="#202020"/><path d="M35.469 37.466v14.69h4.284a3.064 3.064 0 013.06 3.06 3.064 3.064 0 01-3.06 3.06 1.838 1.838 0 01-1.836-1.836c0-1.013.824-1.837 1.836-1.837h.612v1.225h-.612a.612.612 0 000 1.224 1.838 1.838 0 001.836-1.836 1.838 1.838 0 00-1.836-1.837 3.064 3.064 0 00-3.06 3.06 3.064 3.064 0 003.06 3.061 4.29 4.29 0 004.284-4.284v-16.59a7.857 7.857 0 01-3.241-1.16h-5.327zm4.81-1.225l-1.072-8.569h-2.681l-2.678 8.57h6.43zm16.61-4.896h-6.733v1.224h6.733a.612.612 0 000-1.224zm-15.832-4.502l-.659.494 1.144 9.15a6.656 6.656 0 003.472.978h1.23L42.437 26.05c-.489.21-.954.473-1.381.793zm13.383 9.399h-4.284v1.224h4.284a.612.612 0 000-1.224zm1.224-2.449h-5.508v1.224h5.508a.612.612 0 000-1.224zM49.772 24a.49.49 0 00-.19.03l-.606.242a21.017 21.017 0 01-4.832 1.292c-.184.026-.362.072-.542.113l1.888 5.664 1.395-2.79a1.27 1.27 0 01.658-2.186l1.077-.18a1.825 1.825 0 001.53-1.807.379.379 0 00-.378-.378zm-3.732 8.983l1.493 4.482h1.395v-8.569h-.845l-2.044 4.087z" fill="#202020"/><path d="M75.004 36.86c0 15.139-9.127 28.147-22.18 33.82 12.464-5.913 21.082-18.61 21.082-33.322 0-20.356-16.501-36.86-36.857-36.86a36.726 36.726 0 00-14.674 3.039A36.694 36.694 0 0138.147 0c20.355 0 36.857 16.503 36.857 36.86z" fill="#fff"/><defs><linearGradient id="paint0_linear_801_5070" x1="-4.491" y1="90.889" x2="63.739" y2="10.965" gradientUnits="userSpaceOnUse"><stop stop-color="#fff"/><stop offset="1" stop-color="#EFEFEF"/></linearGradient></defs></svg>
